X:1
T:JSB
T:Befiehl du deine Wege
C:J. s. Bach
%%score [ 1 2 3 4 ]
L:1/8
Q:1/4=72
M:4/4
K:F
V:1 treble nm="Sopran" snm="S."
V:2 treble nm="Alt" snm="A."
V:3 treble-8 nm="Tenor" snm="T."
V:4 bass nm="Bass" snm="B."
V:1
 DE | F2 E2 F2 G2 | !fermata!A4 A2 c2 | =B2 A2 A2 ^G2 | !fermata!A6 DE | F2 E2 F2 G2 | %6
w: 1.Be- *|fiehl du dei- ne|We- ge, und|was dein Her- ze|kränkt, der _|al- ler- treu- sten|
 !fermata!A4 A2 c2 | =B2 A2 A2 ^G2 | !fermata!A6 A2 | =B2 c2 dc B2 | (c3 _B) !fermata!A2 A2 | %11
w: Pfle- ge des,|der den Him- mel|lenkt. Der|Wol- ken, Luft * und|Win- * den gibt|
 G2 F2 F2 E2 | !fermata!F6 AG | F2 G2 A2 G2 | F4 !fermata!E2 F2 | G2 F2 E2 E2 | !fermata!D6 |] %17
w: We- ge, Lauf und|Bahn, der _|wird auch We- ge|ﬁn- den, da|dein Fuß ge- hen|kann.|
V:2
 D^C | D2 B,2 A,2 DC | !fermata!C4 C2 C2 | F2 ^F2 E2 E2 | !fermata!E6 D^C | D2 B,2 A,2 DC | %6
w: 2. Dem _|Her- ren musst du _|trau- en, wenn|dir's soll wohl- er-|gehn; auf _|sein Werk musst du _|
 !fermata!C4 C2 C2 | F2 ^F2 E2 E2 | !fermata!E6 E^F | ^G2 A2 A2 =G2 | G2- FG !fermata!F2 F_E | %11
w: schau- en, wenn|dein Werk soll be-|stehn. Mit _|Sor- gen und mit|Grä- * * men und *|
 D2 D2 C2 C2 | !fermata!C6 E2 | F3 E F3 E | ED- D2 !fermata!^C2 D2 | D^C D2 D2 C2 | !fermata!A,6 |] %17
w: mit selbst- ei- gner|Pein lässt|Gott sich gar nichts|neh- * * men, es|muss _ er- be- ten|sein.|
V:3
 AG | A2 G2 F2 FE | !fermata!F4 F2 G2 | ^G2 c2 =Bc d2 | !fermata!c6 AG | A2 G2 F2 FE | %6
w: 3. Dein _|ew- ge Treu und _|Gna- de, o|Va- ter, weiß _ und|sieht was _|gut sei o- der *|
 !fermata!F4 F2 G2 | ^G2 c2 =Bc d2 | !fermata!c6 c2 | d2 e2 d2 d2 | (cedc) !fermata!c2 c2 | %11
w: scha- de dem|men- schli- chen * Ge-|blüt; und|was du dann er-|le- * * * sen, das|
 B2 _A2 G3 =A/B/ | !fermata!A6 A2 | A2 dc c2 de | (A^GA=B) !fermata!A2 A2 | =G2 A2 A3 G | %16
w: treibst du star- ker _|Held, und|bringst zum * Stand und *|We- * * * sen, was|dei- nem Rat ge-|
 !fermata!F6 |] %17
w: fällt.|
V:4
 F,E, | D,3 ^C, D,=C, B,,C, | !fermata!F,,4 F,,2 E,2 | D,2 ^D,2 E,2 E,,2 | !fermata!A,,6 F,E, | %5
 D,3 ^C, D,=C, B,,C, | !fermata!F,,4 F,,2 E,2 | D,2 ^D,2 E,2 E,,2 | !fermata!A,,6 A,2 | %9
 A,2 A,G, ^F,2 G,=F, | (E,C,D,E,) !fermata!F,2 F,,2 | B,,2 =B,,2 C,2 C,,2 | !fermata!F,,6 ^C,2 | %13
 D,C, B,,C, F,,A,, =B,,^C, | (D,_B,,A,,^G,,) !fermata!A,,2 D,2 | E,2 F,G, A,2 A,,2 | %16
 !fermata!D,6 |] %17

